X: 16638
T: Hanka's
R: polka
M: 2/4
K: Aminor
|:ea cA|ec A>B|cA/B/ cA|eg d2|
eg dg|ec B2|A/B/c BG|~A2 A2:|
|:A/B/c A/B/c|BG E2|A/B/c A/B/c|dg e2|
ea cA|ec A>B|c/B/A BG|A(3e/d/c/ A2:|

